static/inkind_logos/stripe.svg

<svg width="360" height="150" xmlns="http://www.w3.org/2000/svg" xmlns:xlink="http://www.w3.org/1999/xlink"><g style="mix-blend-mode:normal"><use xlink:href="#path0_fill" transform="translate(285.7 31.6)" fill="#6772E5" style="mix-blend-mode:normal"/><use xlink:href="#path1_fill" transform="translate(204.2 31.6)" fill="#6772E5" style="mix-blend-mode:normal"/><use xlink:href="#path2_fill" transform="translate(169.8)" fill="#6772E5" style="mix-blend-mode:normal"/><use xlink:href="#path3_fill" transform="translate(169.8 33.3)" fill="#6772E5" style="mix-blend-mode:normal"/><use xlink:href="#path4_fill" transform="translate(119.7 32.266)" fill="#6772E5" style="mix-blend-mode:normal"/><use xlink:href="#path5_fill" transform="translate(68.4 11.6)" fill="#6772E5" style="mix-blend-mode:normal"/><use xlink:href="#path6_fill" transform="translate(0 31.6)" fill="#6772E5" style="mix-blend-mode:normal"/></g><defs><path id="path0_fill" fill-rule="evenodd" d="M74.3 45.8C74.3 20.2 61.9 0 38.2 0 14.4 0 0 20.2 0 45.6c0 30.1 17 45.3 41.4 45.3 11.9 0 20.9-2.7 27.7-6.5v-20c-6.8 3.4-14.6 5.5-24.5 5.5-9.7 0-18.3-3.4-19.4-15.2h48.9c0-1.3.2-6.5.2-8.9zm-49.4-9.5c0-11.3 6.9-16 13.2-16 6.1 0 12.6 4.7 12.6 16H24.9z"/><path id="path1_fill" fill-rule="evenodd" d="M42.9 0c-9.8 0-16.1 4.6-19.6 7.8L22 1.6H0v116.6l25-5.3.1-28.3c3.6 2.6 8.9 6.3 17.7 6.3C60.7 90.9 77 76.5 77 44.8 76.9 15.8 60.4 0 42.9 0zm-6 68.9c-5.9 0-9.4-2.1-11.8-4.7L25 27.1c2.6-2.9 6.2-4.9 11.9-4.9 9.1 0 15.4 10.2 15.4 23.3 0 13.4-6.2 23.4-15.4 23.4z"/><path id="path2_fill" fill-rule="evenodd" d="M0 25.7l25.1-5.4V0L0 5.3v20.4z"/><path id="path3_fill" d="M25.1 0H0v87.5h25.1V0z"/><path id="path4_fill" fill-rule="evenodd" d="M23.2 8.434l-1.6-7.4H0v87.5h25v-59.3c5.9-7.7 15.9-6.3 19-5.2v-23c-3.2-1.2-14.9-3.4-20.8 7.4z"/><path id="path5_fill" fill-rule="evenodd" d="M24.5 0L.1 5.2 0 85.3C0 100.1 11.1 111 25.9 111c8.2 0 14.2-1.5 17.5-3.3V87.4c-3.2 1.3-19 5.9-19-8.9V43h19V21.7h-19L24.5 0z"/><path id="path6_fill" fill-rule="evenodd" d="M25.3 27.1c0-3.9 3.2-5.4 8.5-5.4 7.6 0 17.2 2.3 24.8 6.4V4.6C50.3 1.3 42.1 0 33.8 0 13.5 0 0 10.6 0 28.3c0 27.6 38 23.2 38 35.1 0 4.6-4 6.1-9.6 6.1-8.3 0-18.9-3.4-27.3-8v23.8c9.3 4 18.7 5.7 27.3 5.7 20.8 0 35.1-10.3 35.1-28.2-.1-29.8-38.2-24.5-38.2-35.7z"/></defs></svg>

<svg width="360" height="150" viewBox="0 0 360 150" version="1.1" xmlns="http://www.w3.org/2000/svg" xmlns:xlink="http://www.w3.org/1999/xlink" xmlns:figma="http://www.figma.com/figma/ns">
<title>stripe</title>
<desc>Created using Figma</desc>
<g id="Canvas" transform="translate(231 66)" figma:type="canvas">
<g id="stripe" style="mix-blend-mode:normal;" figma:type="frame">
<g id="Stripe" style="mix-blend-mode:normal;" figma:type="frame">
<g id="Vector" style="mix-blend-mode:normal;" figma:type="vector">
<use xlink:href="#path0_fill" transform="translate(54.7 -34.4)" fill="#6772E5" style="mix-blend-mode:normal;"/>
</g>
<g id="Vector" style="mix-blend-mode:normal;" figma:type="vector">
<use xlink:href="#path1_fill" transform="translate(-26.8 -34.4)" fill="#6772E5" style="mix-blend-mode:normal;"/>
</g>
<g id="Vector" style="mix-blend-mode:normal;" figma:type="vector">
<use xlink:href="#path2_fill" transform="translate(-61.2 -66)" fill="#6772E5" style="mix-blend-mode:normal;"/>
</g>
<g id="Vector" style="mix-blend-mode:normal;" figma:type="vector">
<use xlink:href="#path3_fill" transform="translate(-61.2 -32.7)" fill="#6772E5" style="mix-blend-mode:normal;"/>
</g>
<g id="Vector" style="mix-blend-mode:normal;" figma:type="vector">
<use xlink:href="#path4_fill" transform="translate(-111.3 -33.7337)" fill="#6772E5" style="mix-blend-mode:normal;"/>
</g>
<g id="Vector" style="mix-blend-mode:normal;" figma:type="vector">
<use xlink:href="#path5_fill" transform="translate(-162.6 -54.4)" fill="#6772E5" style="mix-blend-mode:normal;"/>
</g>
<g id="Vector" style="mix-blend-mode:normal;" figma:type="vector">
<use xlink:href="#path6_fill" transform="translate(-231 -34.4)" fill="#6772E5" style="mix-blend-mode:normal;"/>
</g>
</g>
</g>
</g>
<defs>
<path id="path0_fill" fill-rule="evenodd" d="M 74.3 45.8C 74.3 20.2 61.9 -1.52588e-06 38.2 -1.52588e-06C 14.4 -1.52588e-06 1.2207e-05 20.2 1.2207e-05 45.6C 1.2207e-05 75.7 17 90.9 41.4 90.9C 53.3 90.9 62.3 88.2 69.1 84.4L 69.1 64.4C 62.3 67.8 54.5 69.9 44.6 69.9C 34.9 69.9 26.3 66.5 25.2 54.7L 74.1 54.7C 74.1 53.4 74.3 48.2 74.3 45.8ZM 24.9 36.3C 24.9 25 31.8 20.3 38.1 20.3C 44.2 20.3 50.7 25 50.7 36.3L 24.9 36.3Z"/>
<path id="path1_fill" fill-rule="evenodd" d="M 42.9 -1.52588e-06C 33.1 -1.52588e-06 26.8 4.6 23.3 7.8L 22 1.6L 1.2207e-05 1.6L 1.2207e-05 118.2L 25 112.9L 25.1 84.6C 28.7 87.2 34 90.9 42.8 90.9C 60.7 90.9 77 76.5 77 44.8C 76.9 15.8 60.4 -1.52588e-06 42.9 -1.52588e-06ZM 36.9 68.9C 31 68.9 27.5 66.8 25.1 64.2L 25 27.1C 27.6 24.2 31.2 22.2 36.9 22.2C 46 22.2 52.3 32.4 52.3 45.5C 52.3 58.9 46.1 68.9 36.9 68.9Z"/>
<path id="path2_fill" fill-rule="evenodd" d="M 3.05176e-06 25.7L 25.1 20.3L 25.1 0L 3.05176e-06 5.3L 3.05176e-06 25.7Z"/>
<path id="path3_fill" d="M 25.1 3.05176e-06L 3.05176e-06 3.05176e-06L 3.05176e-06 87.5L 25.1 87.5L 25.1 3.05176e-06Z"/>
<path id="path4_fill" fill-rule="evenodd" d="M 23.2 8.43365L 21.6 1.03366L -3.05176e-06 1.03366L -3.05176e-06 88.5337L 25 88.5337L 25 29.2337C 30.9 21.5337 40.9 22.9337 44 24.0337L 44 1.03366C 40.8 -0.166341 29.1 -2.36635 23.2 8.43365Z"/>
<path id="path5_fill" fill-rule="evenodd" d="M 24.5 -1.52588e-06L 0.1 5.2L 1.52588e-06 85.3C 1.52588e-06 100.1 11.1 111 25.9 111C 34.1 111 40.1 109.5 43.4 107.7L 43.4 87.4C 40.2 88.7 24.4 93.3 24.4 78.5L 24.4 43L 43.4 43L 43.4 21.7L 24.4 21.7L 24.5 -1.52588e-06Z"/>
<path id="path6_fill" fill-rule="evenodd" d="M 25.3 27.1C 25.3 23.2 28.5 21.7 33.8 21.7C 41.4 21.7 51 24 58.6 28.1L 58.6 4.6C 50.3 1.3 42.1 -1.52588e-06 33.8 -1.52588e-06C 13.5 -1.52588e-06 0 10.6 0 28.3C 0 55.9 38 51.5 38 63.4C 38 68 34 69.5 28.4 69.5C 20.1 69.5 9.5 66.1 1.1 61.5L 1.1 85.3C 10.4 89.3 19.8 91 28.4 91C 49.2 91 63.5 80.7 63.5 62.8C 63.4 33 25.3 38.3 25.3 27.1Z"/>
</defs>
</svg>
